lib/assets/images/union.svg

<svg width="16" height="16" viewBox="0 0 16 16" fill="none" xmlns="http://www.w3.org/2000/svg">
<path fill-rule="evenodd" clip-rule="evenodd" d="M15.6131 7.98751C15.6133 7.49246 15.2121 7.09129 14.7171 7.09148L8.90669 7.09368L8.91148 1.28612C8.91188 0.791073 8.5109 0.390087 8.01585 0.390494C7.5208 0.390902 7.11915 0.792549 7.11875 1.2876L7.11396 7.09436L1.27158 7.09658C0.776532 7.09676 0.375063 7.49823 0.374875 7.99328C0.374688 8.48833 0.775852 8.88949 1.2709 8.88931L7.11249 8.88709L7.10767 14.7331C7.10727 15.2281 7.50825 15.6291 8.0033 15.6287C8.49835 15.6283 8.9 15.2267 8.9004 14.7316L8.90522 8.88641L14.7164 8.88421C15.2114 8.88402 15.6129 8.48256 15.6131 7.98751Z" fill="black"/>
</svg>

<svg width="16" height="16" fill="none" xmlns="http://www.w3.org/2000/svg"><path fill-rule="evenodd" clip-rule="evenodd" d="M15.613 7.988a.896.896 0 0 0-.896-.897l-5.81.003.004-5.808c0-.495-.4-.896-.895-.896a.898.898 0 0 0-.897.898l-.005 5.806-5.842.003a.897.897 0 0 0-.001 1.792l5.841-.002-.004 5.846c0 .495.4.896.895.896a.898.898 0 0 0 .897-.897l.005-5.846 5.811-.002a.897.897 0 0 0 .897-.896z" fill="#000"/></svg>
